X: 31560
T: Padraigh O'Keefe's
R: slide
M: 12/8
K: Dmajor
|:~f2 f fef g2 g g2 f|~e2 e ede f2 f fec|
d/e/dd def a2 g gfe|dcB ABc d3 d3:|
|:DFA A/B/AF|GBB ~B2 B|~c2 c ABc d2 e f3|
DFF A/B/AF GBB BdB|~c2 c ABc d3 d3:|

